ix/external-drive_bold.svg

<svg viewBox="0 0 24 24" fill="none" xmlns="http://www.w3.org/2000/svg" height="1em" width="1em">
  <path d="M17 2H8C5.79 2 4 3.79 4 6v7.25c0 .55.45 1 1 1h15c.55 0 1-.45 1-1V6c0-2.21-1.79-4-4-4ZM8 12.75H7c-.41 0-.75-.34-.75-.75s.34-.75.75-.75h1c.41 0 .75.34.75.75s-.34.75-.75.75Zm0-2.5H7c-.41 0-.75-.34-.75-.75s.34-.75.75-.75h1c.41 0 .75.34.75.75s-.34.75-.75.75Zm0-2.5H7c-.41 0-.75-.34-.75-.75s.34-.75.75-.75h1c.41 0 .75.34.75.75s-.34.75-.75.75Zm-4 9V18c0 2.21 1.79 4 4 4h9c2.21 0 4-1.79 4-4v-1.25c0-.55-.45-1-1-1H5c-.55 0-1 .45-1 1Zm13.71 2.71c-.19.18-.45.29-.71.29-.26 0-.52-.11-.71-.29-.18-.19-.29-.45-.29-.71 0-.26.11-.52.29-.71.37-.37 1.04-.37 1.42 0 .18.19.29.45.29.71 0 .26-.11.52-.29.71Z" fill="#292D32"/>
</svg>

<svg viewBox="0 0 24 24" fill="none" xmlns="http://www.w3.org/2000/svg" height="1em" width="1em">
  <path d="M17 2H8C5.79 2 4 3.79 4 6V13.25C4 13.8 4.45 14.25 5 14.25H20C20.55 14.25 21 13.8 21 13.25V6C21 3.79 19.21 2 17 2ZM8 12.75H7C6.59 12.75 6.25 12.41 6.25 12C6.25 11.59 6.59 11.25 7 11.25H8C8.41 11.25 8.75 11.59 8.75 12C8.75 12.41 8.41 12.75 8 12.75ZM8 10.25H7C6.59 10.25 6.25 9.91 6.25 9.5C6.25 9.09 6.59 8.75 7 8.75H8C8.41 8.75 8.75 9.09 8.75 9.5C8.75 9.91 8.41 10.25 8 10.25ZM8 7.75H7C6.59 7.75 6.25 7.41 6.25 7C6.25 6.59 6.59 6.25 7 6.25H8C8.41 6.25 8.75 6.59 8.75 7C8.75 7.41 8.41 7.75 8 7.75Z" fill="#292D32"/>
  <path d="M4 16.75V18C4 20.21 5.79 22 8 22H17C19.21 22 21 20.21 21 18V16.75C21 16.2 20.55 15.75 20 15.75H5C4.45 15.75 4 16.2 4 16.75ZM17.71 19.46C17.52 19.64 17.26 19.75 17 19.75C16.74 19.75 16.48 19.64 16.29 19.46C16.11 19.27 16 19.01 16 18.75C16 18.49 16.11 18.23 16.29 18.04C16.66 17.67 17.33 17.67 17.71 18.04C17.89 18.23 18 18.49 18 18.75C18 19.01 17.89 19.27 17.71 19.46Z" fill="#292D32"/>
</svg>
